X:309
T: Der geistliche Vogelgesang
N: A0655
O: Europa, Mitteleuropa, Deutschland
N: Muenchen 1642
R: Romanze, Ballade, Lied, religioeses Lied
M: 4/4
L: 1/4
K: G
Bdc | cBBA | ABcB | BAG2 | z
Bdc | cBBA | ABcB | BAG2 | z
DEF | GAB2 | ABcB | AGA2 | z
BdG | cBA2 | ABcB | BAG2 | z

@@@ Tune index: 622
